packages/icons/src/components/Icon/assets/default/expand-more.svg

<svg>
<path fill-rule="evenodd" clip-rule="evenodd" d="M6.28653 13.3952C6.66856 13.0132 7.28796 13.0132 7.67 13.3952L9.91304 15.6383L12.1561 13.3952C12.5381 13.0132 13.1575 13.0132 13.5396 13.3952C13.9216 13.7773 13.9216 14.3967 13.5396 14.7787L10.6048 17.7135C10.2227 18.0955 9.60334 18.0955 9.22131 17.7135L6.28653 14.7787C5.90449 14.3967 5.90449 13.7773 6.28653 13.3952Z"/>
<path fill-rule="evenodd" clip-rule="evenodd" d="M13.5396 7.60478C13.1575 7.98681 12.5381 7.98681 12.1561 7.60478L9.91304 5.36173L7.67 7.60478C7.28796 7.98681 6.66856 7.98681 6.28653 7.60478C5.90449 7.22274 5.90449 6.60334 6.28653 6.22131L9.22131 3.28653C9.60334 2.90449 10.2227 2.90449 10.6048 3.28653L13.5396 6.22131C13.9216 6.60334 13.9216 7.22274 13.5396 7.60478Z"/>
</svg>

<svg>
    <path fill-rule="evenodd" d="M6.287 13.395a.98.98 0 0 1 1.383 0l2.243 2.243 2.243-2.243a.978.978 0 0 1 1.384 1.384l-2.935 2.935a.98.98 0 0 1-1.384 0l-2.934-2.935a.98.98 0 0 1 0-1.384m7.253-5.79a.98.98 0 0 1-1.384 0L9.913 5.362 7.67 7.605A.978.978 0 0 1 6.287 6.22L9.22 3.287a.98.98 0 0 1 1.384 0L13.54 6.22a.98.98 0 0 1 0 1.384" clip-rule="evenodd"/>
</svg>
